!!!SOCIAL_FUNCTION:	songs connected with the treatment of the sick
!!!PDT:	1932
!!!OTL: No_75_Healing_Song_(b).krn
!!!REG: Wisconsin
!!!LANG: Non-Tone
!!!LING_GROUP: Algonquin
**kern
*staff1
=1-
*clefF4
*k[f#]
*M2/4
4r
4d\
=2
4d\
8d\L
8d\J
=3||
*M3/4
8A\L
8A\J
4r
4d\
=4
4d\
8d\L
8d\J
8d\L
8d\J
=5
4d\
8d\L
8d\J
8r
8c\
=6||
*M2/4
4d\
8d\L
8d\J
=7
4c\
8c\L
8A\J
=8
4A\
8A\L
8G\J
=9||
*M4/4
4.G\
8E\
8D\
8r
4G\
=10||
*M3/4
2G\
8G\L
8G\J
=11
4G\
4G\
8r
8A\
=12||
*M2/4
4c\
8c\L
8B\J
=13
4A\
8A\L
8G\J
=14
4G\
8G\L
8E\J
=15||
*M3/4
4D\
8D\L
16D\Jk
16r
4D\
=16||
*M5/8
4D\
8D\L
8D\
8D\J
=17
2D\
8r
=18||
*M2/4
4D\
8D\L
8D\J
=19
2BB/
=20
2GG/
==
*-
